projects/seb-pictograms/svg/regular/39-Picto-Regular_black.svg

<svg xmlns="http://www.w3.org/2000/svg" viewBox="0 0 170 170"><path d="M162 31.4H8a3 3 0 00-3 3v101.2a3 3 0 003 3h154a3 3 0 003-3V34.4a3 3 0 00-3-3zM85 96.5A11.5 11.5 0 1196.5 85 11.5 11.5 0 0185 96.5zM11 65.6h18.2v38.8H11zm0 67v-22.2h21.2a3 3 0 003-3V62.6a3 3 0 00-3-3H11V37.4h71v30.4a17.5 17.5 0 000 34.4v30.4zm148-28.2h-18.2V65.6H159zm0-44.8h-21.2a3 3 0 00-3 3v44.8a3 3 0 003 3H159v22.2H88v-30.4a17.5 17.5 0 000-34.4V37.4h71z"/></svg>

<svg id="PIKTO_REGULAR" xmlns="http://www.w3.org/2000/svg" viewBox="0 0 170 170"><title>regular_black</title><path d="M162,31.4H8a3,3,0,0,0-3,3V135.6a3,3,0,0,0,3,3H162a3,3,0,0,0,3-3V34.4A3,3,0,0,0,162,31.4ZM85,96.5A11.5,11.5,0,1,1,96.5,85,11.5,11.5,0,0,1,85,96.5ZM11,65.6H29.2v38.8H11Zm0,67V110.4H32.2a3,3,0,0,0,3-3V62.6a3,3,0,0,0-3-3H11V37.4H82V67.8a17.5,17.5,0,0,0,0,34.4v30.4Zm148-28.2H140.8V65.6H159Zm0-44.8H137.8a3,3,0,0,0-3,3v44.8a3,3,0,0,0,3,3H159v22.2H88V102.2a17.5,17.5,0,0,0,0-34.4V37.4h71Z"/></svg>
